X: 17394
T: High Road To Linton, The
R: reel
M: 4/4
K: Amajor
|:cefe ~a3 e|fece fga2|cefe agae|f2ec BA A2:|
|:cee=g fddf|ecce dBB2|cee=g fddf|afed cA A2:|

